package/converter/svg/duotone/arrow-right-to-line.svg

<svg xmlns="http://www.w3.org/2000/svg" viewBox="0 0 448 512"><!-- Font Awesome Pro 6.0.0-alpha2 by @fontawesome - https://fontawesome.com License - https://fontawesome.com/license (Commercial License) --><defs><style>.fa-secondary{opacity:.4}</style></defs><path d="M384 96V416C384 433.688 398.312 448 416 448S448 433.688 448 416V96C448 78.312 433.688 64 416 64S384 78.312 384 96Z" class="fa-secondary"/><path d="M137.375 105.375C149.875 92.875 170.125 92.875 182.625 105.375L310.625 233.375C323.125 245.875 323.125 266.125 310.625 278.625L182.625 406.625C170.125 419.125 149.875 419.125 137.375 406.625C131.125 400.375 128 392.188 128 384S131.125 367.625 137.375 361.375L210.75 288H32C14.312 288 0 273.688 0 256S14.312 224 32 224H210.75L137.375 150.625C124.875 138.125 124.875 117.875 137.375 105.375Z" class="fa-primary"/></svg>

<svg xmlns="http://www.w3.org/2000/svg" viewBox="0 0 448 512"><!--! Font Awesome Pro 6.6.0 by @fontawesome - https://fontawesome.com License - https://fontawesome.com/license (Commercial License) Copyright 2024 Fonticons, Inc. --><defs><style>.fa-secondary{opacity:.4}</style></defs><path class="fa-secondary" d="M384 96l0 320c0 17.7 14.3 32 32 32s32-14.3 32-32l0-320c0-17.7-14.3-32-32-32s-32 14.3-32 32z"/><path class="fa-primary" d="M310.6 233.4c12.5 12.5 12.5 32.8 0 45.3l-128 128c-12.5 12.5-32.8 12.5-45.3 0s-12.5-32.8 0-45.3L210.7 288 32 288c-17.7 0-32-14.3-32-32s14.3-32 32-32l178.7 0-73.4-73.4c-12.5-12.5-12.5-32.8 0-45.3s32.8-12.5 45.3 0l128 128z"/></svg>
